svg/u1f368.svg

<svg viewBox="0 0 128 128" xmlns="http://www.w3.org/2000/svg">
  <path d="M34.8,39.43L24.66,45.2l-4.22,10.7c0,0,1.21,15.95,4.84,20.57c5.17,6.59,11.09,13.26,31.2,17.72 c5.8,1.29,5.35,4.28,0.48,5.88c-3.13,1.03-10.82,1.09-10.82,1.09c-8.17,2.96-9.37,6.11-9.37,8.65s0.86,9.16,15.07,12.95 c11.08,2.96,26.16,1.52,32.72-2.57c6.6-4.12,7.05-8.75,6.99-10.64c-0.06-1.76-1.24-5.12-4.62-6.81c-1.54-0.77-5.77,0.99-9.18,0.07 c-4.08-1.11-7.18-4.96-7.18-4.96s0-2.97,0.54-3.37c0.54-0.4,13.07-1.22,22.34-8.5c9.27-7.28,14.37-17.96,14.37-26.95 s-2.65-11.17-2.65-11.17l-10.4-6.9L34.8,39.43z" fill="#6FA3B0"/>
  <path d="M65.34,94.85c0,0-0.24,4.35,0.12,5.93c0.36,1.57,2.17,4.3,1.63,5.6c-0.6,1.44-3.25,1.88-7.12,1.29 c-6.19-0.94-3.72-4.35-4.54-3.37c-1.76,2.11,2.31,5.91,8.46,5.8c5.63-0.1,8.54-2.28,8.57-3.81c0.04-1.6-1.14-2.45-1.56-4.2 c-0.42-1.76-0.35-4.24-0.35-4.24s19.98,1.72,20.1,10.26s-9.75,13.79-27.31,13.5c-11.63-0.19-26.34-3.88-26.22-12.53 s19.56-11.14,19.56-11.14l0.79-0.06c0,0,0-1.45,0-1.94s-0.06-1.51-0.06-1.51s1.82,0.37,3.88,0.42 C63.4,94.91,65.34,94.85,65.34,94.85z" fill="#B9CED3"/>
  <path d="M48.59,73.34l-19.3-6.77l-8.05-13.54l-1.39-3.94c0,0-3.27,8.42,0.2,18.66s17.42,24.05,42.57,24.05 c24.34,0,35.26-11.92,38.43-17.09c6.29-10.26,6.09-20.26,6.09-20.26l-3.95,5.61l-7.77,7.41l-11.07,5.03l-18.29,2.93L48.59,73.34z" fill="#BBCED3"/>
  <path d="M23.32,67.36c-1.21,0.53,1.04,6.87,7.62,12.36s13.84,8.3,14.66,7.3c0.82-1.01-8.15-5.91-11.49-8.87 C28.53,73.21,24.78,66.72,23.32,67.36z" fill="#FFFFFD"/>
  <path d="M55.37,104.54c0.34,2.39,2.92,2.54,3.57,2.2c0.59-0.31,1.36-3.95,1.36-6.24 c0-2.29-0.73-4.76-1.74-4.94c-1.01-0.18-0.45,4.04-1,5.51C57.02,102.53,55.23,103.6,55.37,104.54z" fill="#FFFFFD"/>
  <path d="M64.22,77.11c-0.47,0-0.94,0-1.41-0.01c-23-0.34-33.26-7.25-38.26-12.54 C21,60.8,19.1,56.6,19.29,52.04c0.48-11.56,17.56-15.33,18.27-15.51l0.81,3.11c-0.15,0.04-14.26,4.57-14.62,13.14 c-0.14,3.45,1.03,5.97,3.82,8.92c6.32,6.69,19.36,10.91,36.22,11.15c26.93,0.42,38.75-11.87,39.2-18.8 c0.39-6.07-7.61-12.25-15.3-14.34l0.42-3.29c9.2,2.5,19.17,8.83,19.1,17.24C107.14,64.25,93.27,77.11,64.22,77.11z" fill="#DFEEF5"/>
  <path d="M42.25,36.17l-4.69,0.35c0,0-1.32-3.4,0.42-5.41s4.44-1.74,4.44-1.74s-0.86-8.39,4.1-15.71 S58.9,1.69,70.73,4.38c12.63,2.87,16.38,15.24,16.38,15.24l-2.35,12.11l-22.39,9.76L42.25,36.17z" fill="#FEA9A6"/>
  <path d="M54.79,37.39c0,0,3.75,1.11,7.32-1.22c2.31-1.51,2.76-3.23,2.76-3.23s7.52,1.05,12.75-2.78 c5.23-3.83,8.68-12.56,8.68-12.56s1.74,3.48,2.27,8.27c0.4,3.55-0.15,5.69-0.15,5.69s2.96-0.78,4.62,2.96 c1.59,3.6-0.35,6.27-0.35,6.27l-35.71,3.66L54.79,37.39z" fill="#FE7C84"/>
  <path d="M74.46,19.58c-0.81-0.23-1.49,0.58-1.59,1.33c-0.11,0.74,0.05,1.65,1.06,1.86 c1.01,0.21,1.43-0.8,1.54-1.59C75.58,20.38,75.21,19.79,74.46,19.58z" fill="#FE7C84"/>
  <path d="M57.68,19.13c-0.86-0.24-1.58,0.62-1.69,1.41c-0.11,0.79,0.04,1.83,1.13,1.97 c1.15,0.15,1.66-0.89,1.66-1.7C58.78,19.96,58.47,19.36,57.68,19.13z" fill="#FE7C84"/>
  <path d="M81.16,13.84c-0.77-0.45-1.43,0.11-1.81,0.53c-0.37,0.42-0.6,1.58,0.12,2.01 c0.78,0.46,1.59-0.03,1.95-0.63C81.84,15.04,81.75,14.19,81.16,13.84z" fill="#FE7C84"/>
  <path d="M61.95,11.85c-0.58-0.58-1.44-0.43-2.02,0.32c-0.53,0.69-0.45,1.64,0.03,2.06 c0.73,0.63,1.75,0,2.1-0.58C62.46,13,62.38,12.28,61.95,11.85z" fill="#FE7C84"/>
  <path d="M51.8,23.81c-0.72-0.46-1.58-0.13-2.03,0.73c-0.42,0.8-0.15,1.73,0.44,2.05 c0.88,0.48,1.88-0.34,2.06-1C52.45,24.95,52.33,24.15,51.8,23.81z" fill="#FE7C84"/>
  <path d="M68.14,42.38c0-0.3,6.28-6.45,15.69-5.73c11.47,0.87,15.59,9.08,15.59,9.08l-0.65,9.53l-8,10.23 c0,0-10.17,3.01-10.53,3.01s-14.14,1.2-14.14,1.2l-2.83-23.17L68.14,42.38z" fill="#FFEBCA"/>
  <path d="M67.66,67.65c0.12,0.18,16.32,0.08,24.28-8.67c8.14-8.93,6.17-15.29,6.23-15.11 c0.06,0.18,2.25,2.53,3.43,7.47c0.74,3.08,0.46,6.06,0.46,6.06s-3.38,7.52-14.14,11.68c-12.76,4.93-24.79,3.68-24.79,3.68 L67.66,67.65z" fill="#EAC183"/>
  <path d="M86.64,50.95c-0.76-0.49-1.65,0-2.2,0.83c-0.55,0.83-0.42,1.84,0.4,2.29 c0.78,0.42,1.74-0.06,2.18-0.95C87.34,52.49,87.45,51.47,86.64,50.95z" fill="#EAC183"/>
  <path d="M62.33,68.15l7.97-6.32l-0.15-12.11l3.76-5.79c0,0-0.38-3.46-3.23-4.74 c-2.86-1.28-6.02,0.98-6.02,0.98s-7.61-8.56-19.56-6.8c-11.13,1.64-16.17,8.44-18.28,13.36c-1.69,3.94-0.98,10.86-0.98,10.86 l6.17,6.13c0,0,16.24,4.66,18.5,5.11S62.33,68.15,62.33,68.15z" fill="#865C50"/>
  <path d="M48.31,62.55c0,0,7.96,4.3,13.65,1.77c5.69-2.53,7.08-7.57,6.74-9.94c-0.34-2.37-0.9-4.45-0.9-4.45 s2.42-1.75,3.72-3.66c1.3-1.91,1.37-5.1,1.37-5.1s2.22,2.92,1.57,7.51c-0.51,3.6-2.72,5.42-2.72,5.42s3.09,2.91,1.63,8.39 c-1.35,5.07-6.08,6.48-6.08,6.48s0.5,1.07,0.37,2.1c-0.13,1.03-0.49,1.82-0.49,1.82s-15.62,0.82-26.88-3.51 C28.48,64.82,26,59.74,26,59.74s-0.29-3.06-0.18-2.83c0.11,0.23,5.54,5.92,12.36,6.88S48.31,62.55,48.31,62.55z" fill="#6C4D42"/>
  <path d="M40.37,51.45c-0.86-0.75-2.1-0.23-2.64,0.5c-0.46,0.63-0.8,1.88,0.03,2.57c1,0.83,2.07,0.1,2.54-0.5 C40.79,53.39,41.13,52.12,40.37,51.45z" fill="#6C4D42"/>
  <path d="M41.94,41.73c-0.79,1.18,0,2.3,0.57,2.57c0.77,0.37,1.84-0.07,2.27-0.97s0.52-1.85-0.47-2.44 C43.4,40.37,42.4,41.03,41.94,41.73z" fill="#6C4D42"/>
  <path d="M54.39,52.02c-1.12-0.6-1.9,0.3-2.27,0.97s-0.57,1.94,0.6,2.54c1.17,0.6,2.1-0.52,2.3-1 C55.39,53.66,55.39,52.55,54.39,52.02z" fill="#6C4D42"/>
</svg>

<svg viewBox="0 0 128 128" xmlns="http://www.w3.org/2000/svg">
  <defs/>
  <path d="M34.8,39.43 L24.66,45.2 L20.44,55.9 C20.44,55.9 21.65,71.85 25.28,76.47 C30.45,83.06 36.37,89.73 56.48,94.19 C62.28,95.48 61.83,98.47 56.96,100.07 C53.83,101.1 46.14,101.16 46.14,101.16 C37.97,104.12 36.77,107.27 36.77,109.81 C36.77,112.35 37.63,118.97 51.84,122.76 C62.92,125.72 78,124.28 84.56,120.19 C91.16,116.07 91.61,111.44 91.55,109.55 C91.49,107.79 90.31,104.43 86.93,102.74 C85.39,101.97 81.16,103.73 77.75,102.81 C73.67,101.7 70.57,97.85 70.57,97.85 C70.57,97.85 70.57,94.88 71.11,94.48 C71.65,94.08 84.18,93.26 93.45,85.98 C102.72,78.7 107.82,68.02 107.82,59.03 C107.82,50.04 105.17,47.86 105.17,47.86 L94.77,40.96 L34.8,39.43 Z" fill="#6FA3B0"/>
  <path d="M65.34,94.85 C65.34,94.85 65.1,99.2 65.46,100.78 C65.82,102.35 67.63,105.08 67.09,106.38 C66.49,107.82 63.84,108.26 59.97,107.67 C53.78,106.73 56.25,103.32 55.43,104.3 C53.67,106.41 57.74,110.21 63.89,110.1 C69.52,110 72.43,107.82 72.46,106.29 C72.5,104.69 71.32,103.84 70.9,102.09 C70.48,100.33 70.55,97.85 70.55,97.85 C70.55,97.85 90.53,99.57 90.65,108.11 C90.77,116.65 80.9,121.9 63.34,121.61 C51.71,121.42 37,117.73 37.12,109.08 C37.24,100.43 56.68,97.94 56.68,97.94 L57.47,97.88 C57.47,97.88 57.47,96.43 57.47,95.94 C57.47,95.45 57.41,94.43 57.41,94.43 C57.41,94.43 59.23,94.8 61.29,94.85 C63.4,94.91 65.34,94.85 65.34,94.85 Z" fill="#B9CED3"/>
  <path d="M48.59,73.34 L29.29,66.57 L21.24,53.03 L19.85,49.09 C19.85,49.09 16.58,57.51 20.05,67.75 C23.52,77.99 37.47,91.8 62.62,91.8 C86.96,91.8 97.88,79.88 101.05,74.71 C107.34,64.45 107.14,54.45 107.14,54.45 L103.19,60.06 L95.42,67.47 L84.35,72.5 L66.06,75.43 L48.59,73.34 Z" fill="#BBCED3"/>
  <path d="M23.32,67.36 C22.11,67.89 24.36,74.23 30.94,79.72 C37.52,85.21 44.78,88.02 45.6,87.02 C46.42,86.01 37.45,81.11 34.11,78.15 C28.53,73.21 24.78,66.72 23.32,67.36 Z" fill="#FFFFFD"/>
  <path d="M55.37,104.54 C55.71,106.93 58.29,107.08 58.94,106.74 C59.53,106.43 60.3,102.79 60.3,100.5 C60.3,98.21 59.57,95.74 58.56,95.56 C57.55,95.38 58.11,99.6 57.56,101.07 C57.02,102.53 55.23,103.6 55.37,104.54 Z" fill="#FFFFFD"/>
  <path d="M64.22,77.11 C63.75,77.11 63.28,77.11 62.81,77.1 C39.81,76.76 29.55,69.85 24.55,64.56 C21,60.8 19.1,56.6 19.29,52.04 C19.77,40.48 36.85,36.71 37.56,36.53 L38.37,39.64 C38.22,39.68 24.11,44.21 23.75,52.78 C23.61,56.23 24.78,58.75 27.57,61.7 C33.89,68.39 46.93,72.61 63.79,72.85 C90.72,73.27 102.54,60.98 102.99,54.05 C103.38,47.98 95.38,41.8 87.69,39.71 L88.11,36.42 C97.31,38.92 107.28,45.25 107.21,53.66 C107.14,64.25 93.27,77.11 64.22,77.11 Z" fill="#DFEEF5"/>
  <path d="M42.25,36.17 L37.56,36.52 C37.56,36.52 36.24,33.12 37.98,31.11 C39.72,29.1 42.42,29.37 42.42,29.37 C42.42,29.37 41.56,20.98 46.52,13.66 C51.48,6.34 58.9,1.69 70.73,4.38 C83.36,7.25 87.11,19.62 87.11,19.62 L84.76,31.73 L62.37,41.49 L42.25,36.17 Z" fill="#FEA9A6"/>
  <path d="M54.79,37.39 C54.79,37.39 58.54,38.5 62.11,36.17 C64.42,34.66 64.87,32.94 64.87,32.94 C64.87,32.94 72.39,33.99 77.62,30.16 C82.85,26.33 86.3,17.6 86.3,17.6 C86.3,17.6 88.04,21.08 88.57,25.87 C88.97,29.42 88.42,31.56 88.42,31.56 C88.42,31.56 91.38,30.78 93.04,34.52 C94.63,38.12 92.69,40.79 92.69,40.79 L56.98,44.45 L54.79,37.39 Z" fill="#FE7C84"/>
  <path d="M74.46,19.58 C73.65,19.35 72.97,20.16 72.87,20.91 C72.76,21.65 72.92,22.56 73.93,22.77 C74.94,22.98 75.36,21.97 75.47,21.18 C75.58,20.38 75.21,19.79 74.46,19.58 Z" fill="#FE7C84"/>
  <path d="M57.68,19.13 C56.82,18.89 56.1,19.75 55.99,20.54 C55.88,21.33 56.03,22.37 57.12,22.51 C58.27,22.66 58.78,21.62 58.78,20.81 C58.78,19.96 58.47,19.36 57.68,19.13 Z" fill="#FE7C84"/>
  <path d="M81.16,13.84 C80.39,13.39 79.73,13.95 79.35,14.37 C78.98,14.79 78.75,15.95 79.47,16.38 C80.25,16.84 81.06,16.35 81.42,15.75 C81.84,15.04 81.75,14.19 81.16,13.84 Z" fill="#FE7C84"/>
  <path d="M61.95,11.85 C61.37,11.27 60.51,11.42 59.93,12.17 C59.4,12.86 59.48,13.81 59.96,14.23 C60.69,14.86 61.71,14.23 62.06,13.65 C62.46,13 62.38,12.28 61.95,11.85 Z" fill="#FE7C84"/>
  <path d="M51.8,23.81 C51.08,23.35 50.22,23.68 49.77,24.54 C49.35,25.34 49.62,26.27 50.21,26.59 C51.09,27.07 52.09,26.25 52.27,25.59 C52.45,24.95 52.33,24.15 51.8,23.81 Z" fill="#FE7C84"/>
  <path d="M68.14,42.38 C68.14,42.08 74.42,35.93 83.83,36.65 C95.3,37.52 99.42,45.73 99.42,45.73 L98.77,55.26 L90.77,65.49 C90.77,65.49 80.6,68.5 80.24,68.5 C79.88,68.5 66.1,69.7 66.1,69.7 L63.27,46.53 L68.14,42.38 Z" fill="#FFEBCA"/>
  <path d="M67.66,67.65 C67.78,67.83 83.98,67.73 91.94,58.98 C100.08,50.05 98.11,43.69 98.17,43.87 C98.23,44.05 100.42,46.4 101.6,51.34 C102.34,54.42 102.06,57.4 102.06,57.4 C102.06,57.4 98.68,64.92 87.92,69.08 C75.16,74.01 63.13,72.76 63.13,72.76 L67.66,67.65 Z" fill="#EAC183"/>
  <path d="M86.64,50.95 C85.88,50.46 84.99,50.95 84.44,51.78 C83.89,52.61 84.02,53.62 84.84,54.07 C85.62,54.49 86.58,54.01 87.02,53.12 C87.34,52.49 87.45,51.47 86.64,50.95 Z" fill="#EAC183"/>
  <path d="M62.33,68.15 L70.3,61.83 L70.15,49.72 L73.91,43.93 C73.91,43.93 73.53,40.47 70.68,39.19 C67.82,37.91 64.66,40.17 64.66,40.17 C64.66,40.17 57.05,31.61 45.1,33.37 C33.97,35.01 28.93,41.81 26.82,46.73 C25.13,50.67 25.84,57.59 25.84,57.59 L32.01,63.72 C32.01,63.72 48.25,68.38 50.51,68.83 C52.77,69.28 62.33,68.15 62.33,68.15 Z" fill="#865C50"/>
  <path d="M48.31,62.55 C48.31,62.55 56.27,66.85 61.96,64.32 C67.65,61.79 69.04,56.75 68.7,54.38 C68.36,52.01 67.8,49.93 67.8,49.93 C67.8,49.93 70.22,48.18 71.52,46.27 C72.82,44.36 72.89,41.17 72.89,41.17 C72.89,41.17 75.11,44.09 74.46,48.68 C73.95,52.28 71.74,54.1 71.74,54.1 C71.74,54.1 74.83,57.01 73.37,62.49 C72.02,67.56 67.29,68.97 67.29,68.97 C67.29,68.97 67.79,70.04 67.66,71.07 C67.53,72.1 67.17,72.89 67.17,72.89 C67.17,72.89 51.55,73.71 40.29,69.38 C28.48,64.82 26,59.74 26,59.74 C26,59.74 25.71,56.68 25.82,56.91 C25.93,57.14 31.36,62.83 38.18,63.79 C45,64.75 48.31,62.55 48.31,62.55 Z" fill="#6C4D42"/>
  <path d="M40.37,51.45 C39.51,50.7 38.27,51.22 37.73,51.95 C37.27,52.58 36.93,53.83 37.76,54.52 C38.76,55.35 39.83,54.62 40.3,54.02 C40.79,53.39 41.13,52.12 40.37,51.45 Z" fill="#6C4D42"/>
  <path d="M41.94,41.73 C41.15,42.91 41.94,44.03 42.51,44.3 C43.28,44.67 44.35,44.23 44.78,43.33 C45.21,42.43 45.3,41.48 44.31,40.89 C43.4,40.37 42.4,41.03 41.94,41.73 Z" fill="#6C4D42"/>
  <path d="M54.39,52.02 C53.27,51.42 52.49,52.32 52.12,52.99 C51.75,53.66 51.55,54.93 52.72,55.53 C53.89,56.13 54.82,55.01 55.02,54.53 C55.39,53.66 55.39,52.55 54.39,52.02 Z" fill="#6C4D42"/>
</svg>
